assets/icon/achievements/trophy.svg

<svg id="Layer_1" enable-background="new 0 0 512 512" height="512" viewBox="0 0 512 512" width="512" xmlns="http://www.w3.org/2000/svg"><g><g><path d="m276.806 452h-41.613c-5.523 0-10 4.478-10 10s4.477 10 10 10h41.613c5.523 0 10-4.478 10-10s-4.477-10-10-10z"/><path d="m456 80.001h-60v-21.721c11.639-4.128 20-15.243 20-28.28 0-16.542-13.458-30-30-30h-260c-16.542 0-30 13.458-30 30 0 13.036 8.361 24.152 20 28.28v21.721h-60c-5.523 0-10 4.478-10 10v70c0 44.112 35.888 80 80 80h8.455c1.922 3.35 3.976 6.639 6.186 9.848 14.155 20.547 33.259 36.792 55.57 47.393-.135 1.152-.212 2.322-.212 3.51 0 14.012 9.657 25.807 22.664 29.088-12.016 40.035-33.369 82.16-58.663 82.16h-24c-5.043 0-9.297 3.755-9.923 8.76l-10 80c-.356 2.846.528 5.708 2.426 7.858s4.629 3.382 7.497 3.382h260c2.868 0 5.599-1.231 7.497-3.382 1.898-2.15 2.782-5.013 2.426-7.858l-10-80c-.625-5.005-4.879-8.76-9.923-8.76h-24c-15.309 0-28.244-16.075-36.399-29.562-10.48-17.331-17.799-37.745-22.262-52.6 13.005-3.282 22.661-15.077 22.661-29.088 0-1.188-.077-2.357-.212-3.51 22.315-10.602 41.421-26.851 55.576-47.401 2.208-3.206 4.259-6.492 6.18-9.838h8.456c44.112 0 80-35.888 80-80v-70c0-5.522-4.477-10-10-10zm-390 80v-60h50v70.749c0 16.98 3.08 33.595 8.997 49.226-32.621-.54-58.997-27.227-58.997-59.975zm308.672 331.999h-237.345l7.5-60h222.345zm-62.094-80h-113.156c4.859-5.326 9.545-11.705 14.045-19.137 12.782-21.11 21.174-45.982 25.762-62.113h33.54c4.593 16.148 12.967 40.955 25.716 62.038 4.515 7.464 9.217 13.868 14.093 19.212zm-26.578-101.25h-60c-5.514 0-10-4.486-10-10s4.486-9.999 10-9.999h60c5.514 0 10 4.486 10 10s-4.486 9.999-10 9.999zm20.948-31.447c-5.411-5.286-12.803-8.552-20.948-8.552h-60c-8.144 0-15.536 3.267-20.947 8.553-42.16-19.852-69.053-61.743-69.053-108.554v-110.75h74.997c5.523 0 10-4.478 10-10s-4.477-10-10-10h-84.997c-5.514 0-10-4.486-10-10s4.486-10 10-10h260c5.514 0 10 4.486 10 10s-4.486 10-10 10h-85.003c-5.523 0-10 4.478-10 10s4.477 10 10 10h75.003v110.75c0 46.808-26.893 88.701-69.052 108.553zm139.052-119.302c0 32.748-26.376 59.435-58.997 59.975 5.917-15.631 8.997-32.246 8.997-49.226v-70.749h50z"/><path d="m256 60c5.523 0 10-4.478 10-10s-4.477-10-10-10h-.008c-5.523 0-9.996 4.478-9.996 10s4.481 10 10.004 10z"/><path d="m267.087 190.8h-1.087v-69.998c0-3.572-1.906-6.874-5-8.66-3.093-1.786-6.905-1.787-10 0l-11.087 6.4c-4.783 2.761-6.422 8.877-3.661 13.66 2.044 3.541 5.926 5.354 9.748 4.943v53.655h-1.087c-5.523 0-10 4.478-10 10s4.477 10 10 10h22.173c5.523 0 10-4.478 10-10s-4.476-10-9.999-10z"/></g></g></svg>

<?xml version="1.0" encoding="UTF-8" standalone="no"?>
<!DOCTYPE svg PUBLIC "-//W3C//DTD SVG 1.1//EN" "http://www.w3.org/Graphics/SVG/1.1/DTD/svg11.dtd">
<svg width="100%" height="100%" viewBox="0 0 512 512" version="1.1" xmlns="http://www.w3.org/2000/svg" xmlns:xlink="http://www.w3.org/1999/xlink" xml:space="preserve" xmlns:serif="http://www.serif.com/" style="fill-rule:evenodd;clip-rule:evenodd;stroke-linejoin:round;stroke-miterlimit:2;">
    <g>
        <g>
            <path d="M276.806,452L235.193,452C229.67,452 225.193,456.478 225.193,462C225.193,467.522 229.67,472 235.193,472L276.806,472C282.329,472 286.806,467.522 286.806,462C286.806,456.478 282.329,452 276.806,452Z" style="fill:white;fill-rule:nonzero;"/>
            <path d="M456,80.001L396,80.001L396,58.28C407.639,54.152 416,43.037 416,30C416,13.458 402.542,0 386,0L126,0C109.458,0 96,13.458 96,30C96,43.036 104.361,54.152 116,58.28L116,80.001L56,80.001C50.477,80.001 46,84.479 46,90.001L46,160.001C46,204.113 81.888,240.001 126,240.001L134.455,240.001C136.377,243.351 138.431,246.64 140.641,249.849C154.796,270.396 173.9,286.641 196.211,297.242C196.076,298.394 195.999,299.564 195.999,300.752C195.999,314.764 205.656,326.559 218.663,329.84C206.647,369.875 185.294,412 160,412L136,412C130.957,412 126.703,415.755 126.077,420.76L116.077,500.76C115.721,503.606 116.605,506.468 118.503,508.618C120.401,510.768 123.132,512 126,512L386,512C388.868,512 391.599,510.769 393.497,508.618C395.395,506.468 396.279,503.605 395.923,500.76L385.923,420.76C385.298,415.755 381.044,412 376,412L352,412C336.691,412 323.756,395.925 315.601,382.438C305.121,365.107 297.802,344.693 293.339,329.838C306.344,326.556 316,314.761 316,300.75C316,299.562 315.923,298.393 315.788,297.24C338.103,286.638 357.209,270.389 371.364,249.839C373.572,246.633 375.623,243.347 377.544,240.001L386,240.001C430.112,240.001 466,204.113 466,160.001L466,90.001C466,84.479 461.523,80.001 456,80.001ZM66,160.001L66,100.001L116,100.001L116,170.75C116,187.73 119.08,204.345 124.997,219.976C92.376,219.436 66,192.749 66,160.001ZM374.672,492L137.327,492L144.827,432L367.172,432L374.672,492ZM312.578,412L199.422,412C204.281,406.674 208.967,400.295 213.467,392.863C226.249,371.753 234.641,346.881 239.229,330.75L272.769,330.75C277.362,346.898 285.736,371.705 298.485,392.788C303,400.252 307.702,406.656 312.578,412ZM286,310.75L226,310.75C220.486,310.75 216,306.264 216,300.75C216,295.236 220.486,290.751 226,290.751L286,290.751C291.514,290.751 296,295.237 296,300.751C296,306.265 291.514,310.75 286,310.75ZM306.948,279.303C301.537,274.017 294.145,270.751 286,270.751L226,270.751C217.856,270.751 210.464,274.018 205.053,279.304C162.893,259.452 136,217.561 136,170.75L136,60L210.997,60C216.52,60 220.997,55.522 220.997,50C220.997,44.478 216.52,40 210.997,40L126,40C120.486,40 116,35.514 116,30C116,24.486 120.486,20 126,20L386,20C391.514,20 396,24.486 396,30C396,35.514 391.514,40 386,40L300.997,40C295.474,40 290.997,44.478 290.997,50C290.997,55.522 295.474,60 300.997,60L376,60L376,170.75C376,217.558 349.107,259.451 306.948,279.303ZM446,160.001C446,192.749 419.624,219.436 387.003,219.976C392.92,204.345 396,187.73 396,170.75L396,100.001L446,100.001L446,160.001Z" style="fill:white;fill-rule:nonzero;"/>
            <path d="M256,60C261.523,60 266,55.522 266,50C266,44.478 261.523,40 256,40L255.992,40C250.469,40 245.996,44.478 245.996,50C245.996,55.522 250.477,60 256,60Z" style="fill:white;fill-rule:nonzero;"/>
            <path d="M267.087,190.8L266,190.8L266,120.802C266,117.23 264.094,113.928 261,112.142C257.907,110.356 254.095,110.355 251,112.142L239.913,118.542C235.13,121.303 233.491,127.419 236.252,132.202C238.296,135.743 242.178,137.556 246,137.145L246,190.8L244.913,190.8C239.39,190.8 234.913,195.278 234.913,200.8C234.913,206.322 239.39,210.8 244.913,210.8L267.086,210.8C272.609,210.8 277.086,206.322 277.086,200.8C277.086,195.278 272.61,190.8 267.087,190.8Z" style="fill:rgb(235,113,27);fill-rule:nonzero;"/>
        </g>
    </g>
</svg>
